X:6
T:Black Robe, The
R:jig
E:7
M:6/8
I:speed 350
K:D
d|.cA=c {Bc}BGB|.cAA {BAG}A2d|.cA=c {Bc}BGB|{AB}AFD {A}D2d|.cA=c {Bc}BGB|.cAA {BAG}A2F|~G3 {c}BGB|{AB}AFD {A}D2:|
e|~f3 ~g3|{b}afd {cd}cBA|~f3 ~g3|a.fd dfg|{b}agf {a}gfe|fed {ged}e2d|cA=c {Bc}BGB|{AB}AFD {A}D2:|
<end>
<start>
